!!!SOCIAL_FUNCTION:	songs used in treating the sick
!!!PDT:	1936
!!!OTL: No_28_Badger_Medicine_Song.krn
!!!REG: Oklahoma and Montana
!!!LANG: Tone
!!!LING_GROUP: Algonquin
**kern
*staff1
=1-
*clefF4
*k[f#c#g#d#]
*M3/4
16d#\LK
8c#\J
16r
16d#\LK
8c#\
16G#\Jk
8G#\L
16G#\Jk
16r
=2
16d#\LK
8c#\J
16r
16d#\LK
8c#\
16G#\Jk
8G#\L
16G#\Jk
16r
=3
16G#\LK
8F#\J
16r
(16G#\LK
8G#\
16F#\Jk
8E\L)
16E\Jk
16r
=4
16C#/LK
8.C#/J
16C#/LK
8C#/
16C#/Jk
8C#/L
16C#/Jk
16r
=5
16G#\LK
8.F#\J
(16G#\LK
8G#\
16F#\Jk
8E\L
16E\Jk)
16r
=6
16C#/LK
8.C#/J
16C#/LK
8C#/
16C#/Jk
8C#/L
16C#/Jk
16r
=7
16E\LK
8.E\J
16C#/LK
8C#/
16C#/Jk
16C#/LK
8.C#/J
=8
16C#/LK
8C#/
16C#/Jk
16C#/LK
8.C#/J
4r
==
*-
